assets/Beach with umbrella/Flat/beach_with_umbrella_flat.svg

<svg width="32" height="32" viewBox="0 0 32 32" fill="none" xmlns="http://www.w3.org/2000/svg">
<path d="M5.01 29.0343H26.99C28.65 29.0343 30 27.6843 30 26.0243V20.0243C30 18.9243 29.11 18.0243 28 18.0243H4C2.9 18.0243 2 18.9143 2 20.0243V26.0243C2 27.6943 3.35 29.0343 5.01 29.0343Z" fill="#FFB02E"/>
<path d="M28 17.0343H4C2.9 17.0343 2 17.9243 2 19.0343V21.0343H29.99V19.0343C29.99 17.9343 29.1 17.0343 28 17.0343Z" fill="#26EAFC"/>
<path d="M24.25 6.97434L7.11997 24.1043C6.91997 24.3043 6.91997 24.6243 7.11997 24.8243C7.31997 25.0243 7.63997 25.0243 7.83997 24.8243L24.97 7.69434C25.17 7.49434 25.17 7.17434 24.97 6.97434C24.77 6.77434 24.45 6.77434 24.25 6.97434Z" fill="#7D4533"/>
<path d="M22.82 24.9443C23.58 25.7043 24.77 25.7643 25.34 25.0243C29.24 19.9243 28.83 12.5643 24.13 7.86432C19.43 3.16432 12.05 2.74432 6.94999 6.64432C6.20999 7.20432 6.26999 8.39432 7.02999 9.15432L7.78999 9.91432L18.97 12.9943L22.05 24.1743L22.82 24.9443Z" fill="#F8312F"/>
<path d="M22.04 24.1743C27.12 19.0943 28.04 11.7943 24.1 7.85432C20.16 3.91432 12.87 4.83432 7.79004 9.91432L22.04 24.1743Z" fill="#F4F4F4"/>
<path d="M18.47 20.5944C23.55 15.5144 26.07 9.80435 24.1 7.84435C22.13 5.88435 16.43 8.40435 11.35 13.4844L18.47 20.5944Z" fill="#F8312F"/>
</svg>

<svg xmlns="http://www.w3.org/2000/svg" width="32" height="32" fill="none"><path fill="#FFB02E" d="M5.01 29.034h21.98c1.66 0 3.01-1.35 3.01-3.01v-6a2 2 0 0 0-2-2H4a2 2 0 0 0-2 2v6c0 1.67 1.35 3.01 3.01 3.01Z"/><path fill="#26EAFC" d="M28 17.034H4a2 2 0 0 0-2 2v2h27.99v-2c0-1.1-.89-2-1.99-2Z"/><path fill="#7D4533" d="M24.25 6.974 7.12 24.104c-.2.2-.2.52 0 .72.2.2.52.2.72 0l17.13-17.13c.2-.2.2-.52 0-.72-.2-.2-.52-.2-.72 0Z"/><path fill="#F8312F" d="M22.82 24.944c.76.76 1.95.82 2.52.08 3.9-5.1 3.49-12.46-1.21-17.16-4.7-4.7-12.08-5.12-17.18-1.22-.74.56-.68 1.75.08 2.51l.76.76 11.18 3.08 3.08 11.18.77.77Z"/><path fill="#F4F4F4" d="M22.04 24.174c5.08-5.08 6-12.38 2.06-16.32-3.94-3.94-11.23-3.02-16.31 2.06l14.25 14.26Z"/><path fill="#F8312F" d="M18.47 20.594c5.08-5.08 7.6-10.79 5.63-12.75-1.97-1.96-7.67.56-12.75 5.64l7.12 7.11Z"/></svg>
